X:1
T:Vevlirelåt
T:(Les Poules huppees/Sansonette)
R:Schottis
O:Frankrike
M:4/4
L:1/8
K:Gm
d2Bd eBde|d2Bd eBde|A3d eAde|AdeA de (3Ade|
d2Bd eBde|d2Bd eBde|A3e dcBA|GABA G4:|
|:d3d c2B2|ABcd G4|GABc d2cd|f2g2 d4|
d3d c2B2|ABcd G4|GABc d2cB|ABcd G4:|

